icons/evolvere-blue-folders-flat-vivid-dark-fallback/status/64/dialog-warning.svg

<?xml version="1.0" encoding="UTF-8" standalone="no"?>
<!-- Created with Inkscape (http://www.inkscape.org/) -->

<svg
   xmlns:dc="http://purl.org/dc/elements/1.1/"
   xmlns:cc="http://creativecommons.org/ns#"
   xmlns:rdf="http://www.w3.org/1999/02/22-rdf-syntax-ns#"
   xmlns:svg="http://www.w3.org/2000/svg"
   xmlns="http://www.w3.org/2000/svg"
   xmlns:sodipodi="http://sodipodi.sourceforge.net/DTD/sodipodi-0.dtd"
   xmlns:inkscape="http://www.inkscape.org/namespaces/inkscape"
   width="64"
   height="64"
   id="svg13094"
   version="1.1"
   inkscape:version="0.48.4 r9939"
   sodipodi:docname="dialog-warning.svg">
  <sodipodi:namedview
     id="base"
     pagecolor="#ffffff"
     bordercolor="#666666"
     borderopacity="1.0"
     inkscape:pageopacity="0"
     inkscape:pageshadow="2"
     inkscape:zoom="11.313709"
     inkscape:cx="46.983105"
     inkscape:cy="32.067465"
     inkscape:document-units="px"
     inkscape:current-layer="svg13094"
     showgrid="true"
     inkscape:snap-bbox="true"
     inkscape:bbox-paths="true"
     inkscape:bbox-nodes="true"
     inkscape:snap-bbox-edge-midpoints="true"
     inkscape:snap-bbox-midpoints="true"
     inkscape:object-paths="true"
     inkscape:snap-intersection-paths="true"
     inkscape:object-nodes="true"
     inkscape:snap-smooth-nodes="true"
     inkscape:snap-midpoints="true"
     inkscape:snap-object-midpoints="true"
     inkscape:snap-center="true"
     showguides="true"
     inkscape:guide-bbox="true"
     inkscape:window-width="1920"
     inkscape:window-height="1025"
     inkscape:window-x="-2"
     inkscape:window-y="32"
     inkscape:window-maximized="1"
     inkscape:snap-global="true"
     fit-margin-top="0"
     fit-margin-left="0"
     fit-margin-right="0"
     fit-margin-bottom="0"
     showborder="true"
     inkscape:showpageshadow="false"
     inkscape:snap-page="true">
    <inkscape:grid
       type="xygrid"
       id="grid3075"
       empspacing="5"
       visible="true"
       enabled="true"
       snapvisiblegridlinesonly="true"
       originx="0px"
       originy="18px" />
  </sodipodi:namedview>
  <defs
     id="defs13096" />
  <metadata
     id="metadata13099">
    <rdf:RDF>
      <cc:Work
         rdf:about="">
        <dc:format>image/svg+xml</dc:format>
        <dc:type
           rdf:resource="http://purl.org/dc/dcmitype/StillImage" />
        <dc:title />
      </cc:Work>
    </rdf:RDF>
  </metadata>
  <path
     inkscape:connector-curvature="0"
     style="color:#000000;fill:#db9d28;fill-opacity:1;fill-rule:nonzero;stroke:none;stroke-width:2.28571415000000000;marker:none;visibility:visible;display:inline;overflow:visible;enable-background:accumulate"
     d="m 0,4 0,30 0,28 2,2 30,0 30,0 2,-2 L 64,34 64,4 32,4 0,4 z"
     id="path3443" />
  <path
     inkscape:connector-curvature="0"
     style="color:#000000;fill:#ffd64b;fill-opacity:1;fill-rule:nonzero;stroke:none;stroke-width:2.28571415000000000;marker:none;visibility:visible;display:inline;overflow:visible;enable-background:accumulate"
     d="M 2,0 0,1 0,4 32,4 64,4 64,1 62,0 32,0 2,0 z"
     id="path3447" />
  <path
     style="fill:#ffdc65;fill-opacity:1;fill-rule:nonzero"
     d="M 0,3 0,6 2,4 z"
     id="path4298"
     inkscape:connector-curvature="0"
     sodipodi:nodetypes="cccc" />
  <path
     d="M 64,6 62,4 64,3 z"
     id="path3028"
     style="fill:#ecb839;fill-opacity:1"
     inkscape:connector-curvature="0" />
  <g
     id="g3043"
     inkscape:export-filename="folder.png"
     inkscape:export-xdpi="90"
     inkscape:export-ydpi="90"
     transform="translate(-0.625,0.082283)" />
  <g
     id="scalable"
     transform="matrix(1.0385892,0,0,1.0385892,1214.7222,1878.8121)"
     inkscape:label="#g3701"
     style="fill:#ffffff" />
  <path
     inkscape:connector-curvature="0"
     style="font-size:medium;font-style:normal;font-variant:normal;font-weight:normal;font-stretch:normal;text-indent:0;text-align:start;text-decoration:none;line-height:normal;letter-spacing:normal;word-spacing:normal;text-transform:none;direction:ltr;block-progression:tb;writing-mode:lr-tb;text-anchor:start;baseline-shift:baseline;color:#000000;fill:#fce7b7;fill-opacity:1;fill-rule:nonzero;stroke:none;stroke-width:2.28571415000000000;marker:none;visibility:visible;display:inline;overflow:visible;enable-background:accumulate;font-family:Sans;-inkscape-font-specification:Sans"
     d="m 31.78125,11 c -1.226627,0.07685 -2.393415,0.806088 -3,1.875 L 9.40625,46.4375 C 8.7661532,47.555914 8.766542,49.013385 9.4072353,50.131458 10.047929,51.249531 11.305185,51.986774 12.59375,52 l 38.8125,0 c 1.288565,-0.01323 2.545821,-0.750469 3.186515,-1.868542 0.640693,-1.118073 0.641082,-2.575544 9.85e-4,-3.693958 L 35.21875,12.875 C 34.53972,11.679769 33.153785,10.923805 31.78125,11 z M 34,47 30,47 c -0.554,0 -1,-0.446 -1,-1 l 0,-4 c 0,-0.554 0.446,-1 1,-1 l 4,0 c 0.554,0 1,0.446 1,1 l 0,4 c 0,0.554 -0.446,1 -1,1 z m 0,-11 -4,0 c -0.554,0 -1,-0.446 -1,-1 l 0,-9 c 0,-0.554 0.446,-1 1,-1 l 4,0 c 0.554,0 1,0.446 1,1 l 0,9 c 0,0.554 -0.446,1 -1,1 z"
     id="path3041"
     sodipodi:nodetypes="cccsccscccssssssssssssssssss" />
</svg>

<svg xmlns="http://www.w3.org/2000/svg" viewBox="0 0 64 64"><g color="#000"><path d="m0 4v30 28l2 2h30 30l2-2v-28-30h-32-32" fill="#db9d28"/><path d="m2 0l-2 1v3h32 32v-3l-2-1h-30-30" fill="#ffd64b"/></g><path d="m0 3v3l2-2z" fill="#ffdc65"/><path d="m64 6l-2-2 2-1z" fill="#ecb839"/><path d="m31.781 11c-1.227.077-2.393.806-3 1.875l-19.375 33.563c-.64 1.118-.64 2.576.001 3.694.641 1.118 1.898 1.855 3.187 1.869h38.813c1.289-.013 2.546-.75 3.187-1.869.641-1.118.641-2.576.001-3.694l-19.375-33.563c-.679-1.195-2.065-1.951-3.438-1.875m2.219 36h-4c-.554 0-1-.446-1-1v-4c0-.554.446-1 1-1h4c.554 0 1 .446 1 1v4c0 .554-.446 1-1 1m0-11h-4c-.554 0-1-.446-1-1v-9c0-.554.446-1 1-1h4c.554 0 1 .446 1 1v9c0 .554-.446 1-1 1" color="#000" fill="#fce7b7"/></svg>
